modules/hawcons-filled/icons/document-edit.svg

<?xml version="1.0" encoding="UTF-8" standalone="no"?>
<svg width="32px" height="32px" viewBox="0 0 32 32" version="1.1" xmlns="http://www.w3.org/2000/svg" xmlns:xlink="http://www.w3.org/1999/xlink" xmlns:sketch="http://www.bohemiancoding.com/sketch/ns">
    <!-- Generator: Sketch 3.0.3 (7891) - http://www.bohemiancoding.com/sketch -->
    <title>icon 136 document edit</title>
    <desc>Created with Sketch.</desc>
    <defs></defs>
    <g id="Page-1" stroke="none" stroke-width="1" fill="none" fill-rule="evenodd" sketch:type="MSPage">
        <g id="icon-136-document-edit" sketch:type="MSArtboardGroup" fill="#929292">
            <path d="M26.4432278,12.1503345 L15.1570131,23.4499064 L15.1570131,23.4499064 L12.5514465,20.8443397 L23.8435383,9.55064513 L26.4432278,12.1503345 L26.4432278,12.1503345 Z M27.1499164,11.4428096 L28.8790954,9.71158405 C29.269069,9.32114892 29.266195,8.68650423 28.8743,8.29568497 L27.6944866,7.11910998 C27.3018646,6.72756564 26.6692577,6.72452466 26.2779126,7.11592531 L24.5505949,8.84348817 L27.1499164,11.4428096 L27.1499164,11.4428096 Z M11.9037061,21.6108129 L11.2641602,24.7235103 L14.3990645,24.1061713 L11.9037061,21.6108129 L11.9037061,21.6108129 L11.9037061,21.6108129 Z M22,18 L22,28.0025781 C22,29.1090746 21.1057238,30 20.0025781,30 L4.99742191,30 C3.89092539,30 3,29.1012878 3,27.9926701 L3,5.00732994 C3,3.89833832 3.8992496,3 5.0085302,3 L15,3 L15,9.00189865 C15,10.1132936 15.8980806,11 17.0059191,11 L21,11 L25.5801067,6.41989327 C26.372781,5.62721897 27.6313906,5.6313906 28.4102504,6.41025036 L29.5897496,7.58974962 C30.3661881,8.36618809 30.3642921,9.63570785 29.5801067,10.4198932 L22,18 L22,18 Z M16,3 L16,8.99707067 C16,9.55097324 16.4509752,10 16.990778,10 L22,10 L16,3 L16,3 Z" id="document-edit" sketch:type="MSShapeGroup"></path>
        </g>
    </g>
</svg>

<svg width="32" height="32" viewBox="0 0 32 32" xmlns="http://www.w3.org/2000/svg"><path d="M26.443 12.15l-11.286 11.3-2.606-2.606L23.844 9.551l2.6 2.6zm.707-.707l1.73-1.731c.39-.39.386-1.025-.006-1.416l-1.18-1.177a1.001 1.001 0 0 0-1.416-.003L24.55 8.843l2.599 2.6zM11.904 21.61l-.64 3.113 3.135-.618-2.495-2.495zM22 18v10.003A1.995 1.995 0 0 1 20.003 30H4.997A2 2 0 0 1 3 27.993V5.007C3 3.898 3.9 3 5.009 3H15v6.002c0 1.111.898 1.998 2.006 1.998H21l4.58-4.58a1.994 1.994 0 0 1 2.83-.01l1.18 1.18a2.003 2.003 0 0 1-.01 2.83L22 18zM16 3v5.997c0 .554.451 1.003.99 1.003H22l-6-7z" fill="#929292" fill-rule="evenodd"/></svg>
